X:765
L:1/8
M:9/8
K:F
|: A3 AFG Afe | d3 dcA cAF | G (3GGG GFD CDF | BAF CDF GAB :| c (3ccc dcB AGF | E2 cc GF EDC | 
 D2 B BAB GFD | CFE GFA GAB | c (3ccc dcB AGF | E2 cc GF EDC | D2 B BAB GFD | C2 A GFC DFA || 
 G3 GFD FGA | B3 AGF GAc | d3 dcA cAF | G3 GFD C (3DEF | G3 GFD FGA | B3 AGF GAc | d3 dcA cAF | 
 GBA CDF GAB ||

